X: 28
T:Loyalist's Hornpipe. WI.028
T:Back Of The Haggard,aka. WI.028
T:Kershaw's Hornpipe,aka. WI.028
M:C|
Q:180
C:Kershaw's,Back Of The Haggard,aka
S:Wm Irwin, 1838 MS, AGG's Transcription
R:Hornpipe
O:England
A:Lake District
Z:vmp.Chris Partington.2005
K:E
d2|egeg fdBd|ecAc BGEG|Acce cage|defd d2cB|!
eBB2 fBB2|gcac bBce|ceAc BAGF|E2E2 E2:|!
|:(3B/c/d/|eBeB BGEG|cAFA cAec|afge fdec|defd B2BA|!
Gee2 Aff2|Bgg2 caa2|bgeg cafd|e2e2 e2:|]
